X: 6226
T: Carmel Mahoney Mulhaire
R: reel
M: 4/4
K: Cmajor
|:A2|GE~E2 C~EE2|G,E~E2 GAcd|ecgc acgc|d2 ed BGAB|
cAAG AGED|C2 EC GCEG|AF~F2 ABcd|ecdB c2:|
|:d2|e2 ed eged|ce~e2 ge~e2|gegc' e'c'ge|fdd^c dG=cd|
e2 ed eged|ce~e2 ge~e2|f2 fe fagf|ecdB c2:|
(3def|:gG~G2 EGcd|ec'bc' agfe|fdd^c d=cBA|AG (3^FGA G2 (3E^FG|
gG G2 EGcd|ec'bc' agfe|fdd^c d=cBA|1 G2 FD C3 g:|2 G2 FD C2||

